public/images/logo-dark.svg

<?xml version="1.0" encoding="UTF-8"?>
<svg fill="none" viewBox="0 0 106 47" xmlns="http://www.w3.org/2000/svg">
<g filter="url(#g)">
<rect width="106" height="42" rx="2" fill="#595959"/>
</g>
<g filter="url(#f)">
<rect x="3" y="2" width="32" height="38" rx="2" fill="#E2E2E2"/>
</g>
<g filter="url(#e)">
<rect x="37" y="2" width="32" height="38" rx="2" fill="#E2E2E2"/>
</g>
<g filter="url(#d)">
<rect x="71" y="2" width="32" height="38" rx="2" fill="#E2E2E2"/>
</g>
<rect x="72" y="3" width="30" height="35" rx="2" fill="#fff"/>
<rect x="38" y="3" width="30" height="35" rx="2" fill="#fff"/>
<rect x="4" y="3" width="30" height="35" rx="2" fill="#fff"/>
<g filter="url(#c)">
<path d="m12.04 32c-0.2133 0-0.4053-0.0747-0.576-0.224-0.1493-0.1707-0.224-0.3627-0.224-0.576v-20.8c0-0.2347 0.0747-0.42669 0.224-0.57602 0.1707-0.14934 0.3627-0.224 0.576-0.224h4.032c0.2347 0 0.4267 0.07466 0.576 0.224 0.1493 0.14933 0.224 0.34132 0.224 0.57602v7.104l5.92-7.296c0.256-0.40536 0.672-0.60802 1.248-0.60802h4.608c0.192 0 0.352 0.07466 0.48 0.224 0.128 0.128 0.192 0.27732 0.192 0.44802 0 0.1493-0.032 0.2773-0.096 0.384l-7.68 9.664 8.256 10.624c0.0853 0.0853 0.128 0.2133 0.128 0.384 0 0.1706-0.064 0.3306-0.192 0.48-0.128 0.128-0.288 0.192-0.48 0.192h-4.768c-0.512 0-0.9387-0.2134-1.28-0.64l-6.336-7.904v7.744c0 0.2346-0.0747 0.4266-0.224 0.576-0.1493 0.1493-0.3413 0.224-0.576 0.224h-4.032z" fill="#242424"/>
</g>
<g filter="url(#b)">
<path d="m53.424 32.32c-3.0507 0-5.44-0.736-7.168-2.208-1.7067-1.4933-2.6133-3.648-2.72-6.464-0.0213-0.576-0.032-1.5146-0.032-2.816 0-1.3226 0.0107-2.2826 0.032-2.88 0.1067-2.7733 1.0347-4.9066 2.784-6.4 1.7493-1.5146 4.1173-2.272 7.104-2.272 1.8773 0 3.5627 0.32 5.056 0.95997 1.4933 0.6187 2.6667 1.5147 3.52 2.688 0.8747 1.152 1.3227 2.5067 1.344 4.064v0.064c0 0.1707-0.0747 0.32-0.224 0.448-0.128 0.1067-0.2773 0.16-0.448 0.16h-4.32c-0.2773 0-0.4907-0.0533-0.64-0.16-0.1493-0.128-0.2773-0.352-0.384-0.672-0.2987-1.088-0.768-1.8453-1.408-2.272-0.64-0.448-1.4827-0.672-2.528-0.672-2.5173 0-3.8187 1.408-3.904 4.224-0.0213 0.576-0.032 1.4614-0.032 2.656 0 1.1947 0.0107 2.1014 0.032 2.72 0.0853 2.816 1.3867 4.224 3.904 4.224 1.0453 0 1.8987-0.224 2.56-0.672 0.6613-0.4693 1.12-1.2266 1.376-2.272 0.0853-0.32 0.2027-0.5333 0.352-0.64 0.1493-0.128 0.3733-0.192 0.672-0.192h4.32c0.192 0 0.352 0.064 0.48 0.192 0.1493 0.128 0.2133 0.288 0.192 0.48-0.0213 1.5574-0.4693 2.9227-1.344 4.096-0.8533 1.152-2.0267 2.048-3.52 2.688-1.4933 0.6187-3.1787 0.928-5.056 0.928z" fill="#242424"/>
</g>
<g filter="url(#a)">
<path d="m86.592 32.32c-2.0267 0-3.7653-0.2986-5.216-0.896-1.4507-0.5973-2.5493-1.376-3.296-2.336-0.7253-0.9813-1.1093-2.048-1.152-3.2 0-0.1706 0.064-0.32 0.192-0.448 0.1493-0.1493 0.32-0.224 0.512-0.224h4.032c0.256 0 0.4587 0.0534 0.608 0.16 0.1707 0.0854 0.3413 0.224 0.512 0.416 0.2773 0.5547 0.7253 1.0134 1.344 1.376 0.6187 0.3627 1.44 0.544 2.464 0.544 1.216 0 2.144-0.192 2.784-0.576s0.96-0.9066 0.96-1.568c0-0.4693-0.1707-0.8533-0.512-1.152-0.32-0.2986-0.832-0.5653-1.536-0.8-0.704-0.2346-1.7493-0.5013-3.136-0.8-2.56-0.5333-4.48-1.312-5.76-2.336-1.2587-1.0453-1.888-2.528-1.888-4.448 0-1.3013 0.3627-2.464 1.088-3.488s1.76-1.824 3.104-2.4c1.344-0.57597 2.912-0.86397 4.704-0.86397 1.856 0 3.4667 0.32 4.832 0.95997 1.3653 0.64 2.4 1.4507 3.104 2.432 0.7253 0.96 1.1093 1.9094 1.152 2.848 0 0.192-0.064 0.352-0.192 0.48s-0.288 0.192-0.48 0.192h-4.224c-0.256 0-0.4693-0.0426-0.64-0.128-0.1493-0.0853-0.288-0.224-0.416-0.416-0.128-0.4906-0.48-0.9066-1.056-1.248-0.5547-0.3413-1.248-0.512-2.08-0.512-0.96 0-1.696 0.1707-2.208 0.512-0.512 0.3414-0.768 0.8427-0.768 1.504 0 0.448 0.1387 0.8214 0.416 1.12 0.2987 0.2987 0.768 0.576 1.408 0.832 0.6613 0.2347 1.6 0.48 2.816 0.736 1.984 0.3627 3.5627 0.8214 4.736 1.376 1.1947 0.5334 2.0693 1.2374 2.624 2.112 0.5547 0.8534 0.832 1.9307 0.832 3.232 0 1.4294-0.416 2.6774-1.248 3.744-0.8107 1.0454-1.952 1.856-3.424 2.432-1.4507 0.5547-3.1147 0.832-4.992 0.832z" fill="#242424"/>
</g>
<defs>
<filter id="g" x="-3" y="-3" width="114" height="50" color-interpolation-filters="sRGB" filterUnits="userSpaceOnUse">
<feFlood flood-opacity="0" result="BackgroundImageFix"/>
<feColorMatrix in="SourceAlpha" values="0 0 0 0 0 0 0 0 0 0 0 0 0 0 0 0 0 0 127 0"/>
<feOffset dx="1" dy="1"/>
<feGaussianBlur stdDeviation="2"/>
<feColorMatrix values="0 0 0 0 0 0 0 0 0 0 0 0 0 0 0 0 0 0 0.5 0"/>
<feBlend in2="BackgroundImageFix" result="effect1_dropShadow"/>
<feBlend in="SourceGraphic" in2="effect1_dropShadow" result="shape"/>
</filter>
<filter id="f" x="0" y="-1" width="40" height="46" color-interpolation-filters="sRGB" filterUnits="userSpaceOnUse">
<feFlood flood-opacity="0" result="BackgroundImageFix"/>
<feColorMatrix in="SourceAlpha" values="0 0 0 0 0 0 0 0 0 0 0 0 0 0 0 0 0 0 127 0"/>
<feOffset dx="1" dy="1"/>
<feGaussianBlur stdDeviation="2"/>
<feColorMatrix values="0 0 0 0 0 0 0 0 0 0 0 0 0 0 0 0 0 0 0.5 0"/>
<feBlend in2="BackgroundImageFix" result="effect1_dropShadow"/>
<feBlend in="SourceGraphic" in2="effect1_dropShadow" result="shape"/>
</filter>
<filter id="e" x="34" y="-1" width="40" height="46" color-interpolation-filters="sRGB" filterUnits="userSpaceOnUse">
<feFlood flood-opacity="0" result="BackgroundImageFix"/>
<feColorMatrix in="SourceAlpha" values="0 0 0 0 0 0 0 0 0 0 0 0 0 0 0 0 0 0 127 0"/>
<feOffset dx="1" dy="1"/>
<feGaussianBlur stdDeviation="2"/>
<feColorMatrix values="0 0 0 0 0 0 0 0 0 0 0 0 0 0 0 0 0 0 0.5 0"/>
<feBlend in2="BackgroundImageFix" result="effect1_dropShadow"/>
<feBlend in="SourceGraphic" in2="effect1_dropShadow" result="shape"/>
</filter>
<filter id="d" x="68" y="-1" width="40" height="46" color-interpolation-filters="sRGB" filterUnits="userSpaceOnUse">
<feFlood flood-opacity="0" result="BackgroundImageFix"/>
<feColorMatrix in="SourceAlpha" values="0 0 0 0 0 0 0 0 0 0 0 0 0 0 0 0 0 0 127 0"/>
<feOffset dx="1" dy="1"/>
<feGaussianBlur stdDeviation="2"/>
<feColorMatrix values="0 0 0 0 0 0 0 0 0 0 0 0 0 0 0 0 0 0 0.5 0"/>
<feBlend in2="BackgroundImageFix" result="effect1_dropShadow"/>
<feBlend in="SourceGraphic" in2="effect1_dropShadow" result="shape"/>
</filter>
<filter id="c" x="11.24" y="9.6" width="18.688" height="23.4" color-interpolation-filters="sRGB" filterUnits="userSpaceOnUse">
<feFlood flood-opacity="0" result="BackgroundImageFix"/>
<feColorMatrix in="SourceAlpha" values="0 0 0 0 0 0 0 0 0 0 0 0 0 0 0 0 0 0 127 0"/>
<feOffset dy="1"/>
<feColorMatrix values="0 0 0 0 0.561707 0 0 0 0 0.561707 0 0 0 0 0.561707 0 0 0 0.493034 0"/>
<feBlend in2="BackgroundImageFix" result="effect1_dropShadow"/>
<feBlend in="SourceGraphic" in2="effect1_dropShadow" result="shape"/>
</filter>
<filter id="b" x="43.504" y="9.28" width="19.844" height="24.04" color-interpolation-filters="sRGB" filterUnits="userSpaceOnUse">
<feFlood flood-opacity="0" result="BackgroundImageFix"/>
<feColorMatrix in="SourceAlpha" values="0 0 0 0 0 0 0 0 0 0 0 0 0 0 0 0 0 0 127 0"/>
<feOffset dy="1"/>
<feColorMatrix values="0 0 0 0 0.561707 0 0 0 0 0.561707 0 0 0 0 0.561707 0 0 0 0.493034 0"/>
<feBlend in2="BackgroundImageFix" result="effect1_dropShadow"/>
<feBlend in="SourceGraphic" in2="effect1_dropShadow" result="shape"/>
</filter>
<filter id="a" x="76.928" y="9.28" width="19.328" height="24.04" color-interpolation-filters="sRGB" filterUnits="userSpaceOnUse">
<feFlood flood-opacity="0" result="BackgroundImageFix"/>
<feColorMatrix in="SourceAlpha" values="0 0 0 0 0 0 0 0 0 0 0 0 0 0 0 0 0 0 127 0"/>
<feOffset dy="1"/>
<feColorMatrix values="0 0 0 0 0.561707 0 0 0 0 0.561707 0 0 0 0 0.561707 0 0 0 0.493034 0"/>
<feBlend in2="BackgroundImageFix" result="effect1_dropShadow"/>
<feBlend in="SourceGraphic" in2="effect1_dropShadow" result="shape"/>
</filter>
</defs>
</svg>

<svg width="106" height="47" viewBox="0 0 106 47" fill="none" xmlns="http://www.w3.org/2000/svg">
<g filter="url(#filter0_d)">
<rect width="106" height="42" rx="2" fill="#595959"/>
</g>
<g filter="url(#filter1_d)">
<rect x="3" y="2" width="32" height="38" rx="2" fill="#E2E2E2"/>
</g>
<g filter="url(#filter2_d)">
<rect x="37" y="2" width="32" height="38" rx="2" fill="#E2E2E2"/>
</g>
<g filter="url(#filter3_d)">
<rect x="71" y="2" width="32" height="38" rx="2" fill="#E2E2E2"/>
</g>
<rect x="72" y="3" width="30" height="35" rx="2" fill="white"/>
<rect x="38" y="3" width="30" height="35" rx="2" fill="white"/>
<rect x="4" y="3" width="30" height="35" rx="2" fill="white"/>
<g filter="url(#filter4_d)">
<path d="M12.04 32C11.8267 32 11.6347 31.9253 11.464 31.776C11.3147 31.6053 11.24 31.4133 11.24 31.2V10.4C11.24 10.1653 11.3147 9.97331 11.464 9.82398C11.6347 9.67464 11.8267 9.59998 12.04 9.59998H16.072C16.3067 9.59998 16.4987 9.67464 16.648 9.82398C16.7973 9.97331 16.872 10.1653 16.872 10.4V17.504L22.792 10.208C23.048 9.80264 23.464 9.59998 24.04 9.59998H28.648C28.84 9.59998 29 9.67464 29.128 9.82398C29.256 9.95198 29.32 10.1013 29.32 10.272C29.32 10.4213 29.288 10.5493 29.224 10.656L21.544 20.32L29.8 30.944C29.8853 31.0293 29.928 31.1573 29.928 31.328C29.928 31.4986 29.864 31.6586 29.736 31.808C29.608 31.936 29.448 32 29.256 32H24.488C23.976 32 23.5493 31.7866 23.208 31.36L16.872 23.456V31.2C16.872 31.4346 16.7973 31.6266 16.648 31.776C16.4987 31.9253 16.3067 32 16.072 32H12.04Z" fill="#242424"/>
</g>
<g filter="url(#filter5_d)">
<path d="M53.424 32.32C50.3733 32.32 47.984 31.584 46.256 30.112C44.5493 28.6187 43.6427 26.464 43.536 23.648C43.5147 23.072 43.504 22.1334 43.504 20.832C43.504 19.5094 43.5147 18.5494 43.536 17.952C43.6427 15.1787 44.5707 13.0454 46.32 11.552C48.0693 10.0374 50.4373 9.28003 53.424 9.28003C55.3013 9.28003 56.9867 9.60003 58.48 10.24C59.9733 10.8587 61.1467 11.7547 62 12.928C62.8747 14.08 63.3227 15.4347 63.344 16.992V17.056C63.344 17.2267 63.2693 17.376 63.12 17.504C62.992 17.6107 62.8427 17.664 62.672 17.664H58.352C58.0747 17.664 57.8613 17.6107 57.712 17.504C57.5627 17.376 57.4347 17.152 57.328 16.832C57.0293 15.744 56.56 14.9867 55.92 14.56C55.28 14.112 54.4373 13.888 53.392 13.888C50.8747 13.888 49.5733 15.296 49.488 18.112C49.4667 18.688 49.456 19.5734 49.456 20.768C49.456 21.9627 49.4667 22.8694 49.488 23.488C49.5733 26.304 50.8747 27.712 53.392 27.712C54.4373 27.712 55.2907 27.488 55.952 27.04C56.6133 26.5707 57.072 25.8134 57.328 24.768C57.4133 24.448 57.5307 24.2347 57.68 24.128C57.8293 24 58.0533 23.936 58.352 23.936H62.672C62.864 23.936 63.024 24 63.152 24.128C63.3013 24.256 63.3653 24.416 63.344 24.608C63.3227 26.1654 62.8747 27.5307 62 28.704C61.1467 29.856 59.9733 30.752 58.48 31.392C56.9867 32.0107 55.3013 32.32 53.424 32.32Z" fill="#242424"/>
</g>
<g filter="url(#filter6_d)">
<path d="M86.592 32.32C84.5653 32.32 82.8267 32.0214 81.376 31.424C79.9253 30.8267 78.8267 30.048 78.08 29.088C77.3547 28.1067 76.9707 27.04 76.928 25.888C76.928 25.7174 76.992 25.568 77.12 25.44C77.2693 25.2907 77.44 25.216 77.632 25.216H81.664C81.92 25.216 82.1227 25.2694 82.272 25.376C82.4427 25.4614 82.6133 25.6 82.784 25.792C83.0613 26.3467 83.5093 26.8054 84.128 27.168C84.7467 27.5307 85.568 27.712 86.592 27.712C87.808 27.712 88.736 27.52 89.376 27.136C90.016 26.752 90.336 26.2294 90.336 25.568C90.336 25.0987 90.1653 24.7147 89.824 24.416C89.504 24.1174 88.992 23.8507 88.288 23.616C87.584 23.3814 86.5387 23.1147 85.152 22.816C82.592 22.2827 80.672 21.504 79.392 20.48C78.1333 19.4347 77.504 17.952 77.504 16.032C77.504 14.7307 77.8667 13.568 78.592 12.544C79.3173 11.52 80.352 10.72 81.696 10.144C83.04 9.56803 84.608 9.28003 86.4 9.28003C88.256 9.28003 89.8667 9.60003 91.232 10.24C92.5973 10.88 93.632 11.6907 94.336 12.672C95.0613 13.632 95.4453 14.5814 95.488 15.52C95.488 15.712 95.424 15.872 95.296 16C95.168 16.128 95.008 16.192 94.816 16.192H90.592C90.336 16.192 90.1227 16.1494 89.952 16.064C89.8027 15.9787 89.664 15.84 89.536 15.648C89.408 15.1574 89.056 14.7414 88.48 14.4C87.9253 14.0587 87.232 13.888 86.4 13.888C85.44 13.888 84.704 14.0587 84.192 14.4C83.68 14.7414 83.424 15.2427 83.424 15.904C83.424 16.352 83.5627 16.7254 83.84 17.024C84.1387 17.3227 84.608 17.6 85.248 17.856C85.9093 18.0907 86.848 18.336 88.064 18.592C90.048 18.9547 91.6267 19.4134 92.8 19.968C93.9947 20.5014 94.8693 21.2054 95.424 22.08C95.9787 22.9334 96.256 24.0107 96.256 25.312C96.256 26.7414 95.84 27.9894 95.008 29.056C94.1973 30.1014 93.056 30.912 91.584 31.488C90.1333 32.0427 88.4693 32.32 86.592 32.32Z" fill="#242424"/>
</g>
<defs>
<filter id="filter0_d" x="-3" y="-3" width="114" height="50" filterUnits="userSpaceOnUse" color-interpolation-filters="sRGB">
<feFlood flood-opacity="0" result="BackgroundImageFix"/>
<feColorMatrix in="SourceAlpha" type="matrix" values="0 0 0 0 0 0 0 0 0 0 0 0 0 0 0 0 0 0 127 0"/>
<feOffset dx="1" dy="1"/>
<feGaussianBlur stdDeviation="2"/>
<feColorMatrix type="matrix" values="0 0 0 0 0 0 0 0 0 0 0 0 0 0 0 0 0 0 0.5 0"/>
<feBlend mode="normal" in2="BackgroundImageFix" result="effect1_dropShadow"/>
<feBlend mode="normal" in="SourceGraphic" in2="effect1_dropShadow" result="shape"/>
</filter>
<filter id="filter1_d" x="0" y="-1" width="40" height="46" filterUnits="userSpaceOnUse" color-interpolation-filters="sRGB">
<feFlood flood-opacity="0" result="BackgroundImageFix"/>
<feColorMatrix in="SourceAlpha" type="matrix" values="0 0 0 0 0 0 0 0 0 0 0 0 0 0 0 0 0 0 127 0"/>
<feOffset dx="1" dy="1"/>
<feGaussianBlur stdDeviation="2"/>
<feColorMatrix type="matrix" values="0 0 0 0 0 0 0 0 0 0 0 0 0 0 0 0 0 0 0.5 0"/>
<feBlend mode="normal" in2="BackgroundImageFix" result="effect1_dropShadow"/>
<feBlend mode="normal" in="SourceGraphic" in2="effect1_dropShadow" result="shape"/>
</filter>
<filter id="filter2_d" x="34" y="-1" width="40" height="46" filterUnits="userSpaceOnUse" color-interpolation-filters="sRGB">
<feFlood flood-opacity="0" result="BackgroundImageFix"/>
<feColorMatrix in="SourceAlpha" type="matrix" values="0 0 0 0 0 0 0 0 0 0 0 0 0 0 0 0 0 0 127 0"/>
<feOffset dx="1" dy="1"/>
<feGaussianBlur stdDeviation="2"/>
<feColorMatrix type="matrix" values="0 0 0 0 0 0 0 0 0 0 0 0 0 0 0 0 0 0 0.5 0"/>
<feBlend mode="normal" in2="BackgroundImageFix" result="effect1_dropShadow"/>
<feBlend mode="normal" in="SourceGraphic" in2="effect1_dropShadow" result="shape"/>
</filter>
<filter id="filter3_d" x="68" y="-1" width="40" height="46" filterUnits="userSpaceOnUse" color-interpolation-filters="sRGB">
<feFlood flood-opacity="0" result="BackgroundImageFix"/>
<feColorMatrix in="SourceAlpha" type="matrix" values="0 0 0 0 0 0 0 0 0 0 0 0 0 0 0 0 0 0 127 0"/>
<feOffset dx="1" dy="1"/>
<feGaussianBlur stdDeviation="2"/>
<feColorMatrix type="matrix" values="0 0 0 0 0 0 0 0 0 0 0 0 0 0 0 0 0 0 0.5 0"/>
<feBlend mode="normal" in2="BackgroundImageFix" result="effect1_dropShadow"/>
<feBlend mode="normal" in="SourceGraphic" in2="effect1_dropShadow" result="shape"/>
</filter>
<filter id="filter4_d" x="11.24" y="9.59998" width="18.688" height="23.4" filterUnits="userSpaceOnUse" color-interpolation-filters="sRGB">
<feFlood flood-opacity="0" result="BackgroundImageFix"/>
<feColorMatrix in="SourceAlpha" type="matrix" values="0 0 0 0 0 0 0 0 0 0 0 0 0 0 0 0 0 0 127 0"/>
<feOffset dy="1"/>
<feColorMatrix type="matrix" values="0 0 0 0 0.561707 0 0 0 0 0.561707 0 0 0 0 0.561707 0 0 0 0.493034 0"/>
<feBlend mode="normal" in2="BackgroundImageFix" result="effect1_dropShadow"/>
<feBlend mode="normal" in="SourceGraphic" in2="effect1_dropShadow" result="shape"/>
</filter>
<filter id="filter5_d" x="43.504" y="9.28003" width="19.844" height="24.04" filterUnits="userSpaceOnUse" color-interpolation-filters="sRGB">
<feFlood flood-opacity="0" result="BackgroundImageFix"/>
<feColorMatrix in="SourceAlpha" type="matrix" values="0 0 0 0 0 0 0 0 0 0 0 0 0 0 0 0 0 0 127 0"/>
<feOffset dy="1"/>
<feColorMatrix type="matrix" values="0 0 0 0 0.561707 0 0 0 0 0.561707 0 0 0 0 0.561707 0 0 0 0.493034 0"/>
<feBlend mode="normal" in2="BackgroundImageFix" result="effect1_dropShadow"/>
<feBlend mode="normal" in="SourceGraphic" in2="effect1_dropShadow" result="shape"/>
</filter>
<filter id="filter6_d" x="76.928" y="9.28003" width="19.328" height="24.04" filterUnits="userSpaceOnUse" color-interpolation-filters="sRGB">
<feFlood flood-opacity="0" result="BackgroundImageFix"/>
<feColorMatrix in="SourceAlpha" type="matrix" values="0 0 0 0 0 0 0 0 0 0 0 0 0 0 0 0 0 0 127 0"/>
<feOffset dy="1"/>
<feColorMatrix type="matrix" values="0 0 0 0 0.561707 0 0 0 0 0.561707 0 0 0 0 0.561707 0 0 0 0.493034 0"/>
<feBlend mode="normal" in2="BackgroundImageFix" result="effect1_dropShadow"/>
<feBlend mode="normal" in="SourceGraphic" in2="effect1_dropShadow" result="shape"/>
</filter>
</defs>
</svg>
